components/Company/logos/logo-backmarket.svg

<svg height="140" viewBox="0 0 400 140" width="400" xmlns="http://www.w3.org/2000/svg"><path d="m0 0h17.3228544c8.6438227 0 14.0264068 4.8580624 14.0264068 11.1612446.0936995 3.8682554-1.9826839 7.4655391-5.3825841 9.3251957 4.721358 1.4440214 7.9389885 5.802458 7.9221038 10.7307834 0 7.757087-6.0032103 12.9270142-15.8001295 12.9270142h-18.0886514zm17.5121031 18.0969413c4.1062559 0 6.447658-1.7569846 6.447658-5.6091733 0-3.85218873-2.3414021-5.55207132-6.447658-5.55207132h-10.12260294v11.16124462zm1.8528765 19.1115999c4.04464 0 6.8261553-2.0205323 6.8261553-6.0572044s-2.8035209-6.1143064-6.8261553-6.1143064h-11.96227605v12.1715108zm17.6045268-8.8288476c0-10.5946171 6.949387-16.3970587 15.0386671-16.3970587 3.9610186 0 7.3278843 1.8799735 9.7309023 4.0893817l2.4778371-3.4612597h4.7224144v31.533481h-7.2266583v-3.9005058c-2.0245206 2.1435212-5.1845332 4.5330202-9.9201509 4.5330202-7.3939013 0-14.8494184-5.8024416-14.8494184-16.3970587zm24.7695694 2.3323971v-4.6032997c0-4.5418051-3.8553914-7.9459628-8.5337944-7.9459628-4.9248664 0-8.9695065 3.2767763-8.9695065 10.2168654 0 6.9400892 4.0182333 10.2168654 9.0179189 10.2168654 4.6035838 0 8.4589752-3.3426632 8.4589752-7.8844683zm74.5903802-18.1013338h-8.846275l-12.930525 14.6225043v-27.2332612h-7.204652v44.1442379h7.204652v-14.6093269l12.930525 14.6093269h8.846275l-14.030808-15.7645443zm18.097454 0h-8.846275l-13.986797 15.7689367 13.995599 15.7645443h8.846275l-14.03961-15.7645443zm41.423452-12.6107569-13.137379 28.1512856-13.168186-28.1512856h-7.922037v44.1442379h7.187048v-29.8379909l10.562716 22.7749128h6.698523l10.562716-22.7749128v29.8379909h7.138636v-44.1442379zm12.345174 28.3796936c0-10.5946171 6.949387-16.3970587 15.038667-16.3970587 3.961019 0 7.327884 1.8799735 9.730902 4.0893817l2.495442-3.4612597h4.726815v31.533481h-7.213454v-3.9005058c-2.02012 2.1435212-5.180132 4.5330202-9.920151 4.5330202-7.398303 0-14.849419-5.8024416-14.849419-16.3970587zm24.769569 2.3323971v-4.6032997c0-4.5418051-3.855391-7.9459628-8.529393-7.9459628-4.929267 0-8.973908 3.2767763-8.973908 10.2168654 0 6.9400892 4.044641 10.2168654 9.035524 10.2168654 4.621188 0 8.47658-3.3426632 8.47658-7.8844683zm12.309966-18.1013338h4.709211l2.482238 3.4612597c2.147752-2.4597785 4.251493-3.9532154 7.455517-3.9532154h5.334172v6.8346701h-8.071676c-2.979566 0-4.70481 1.3968027-4.70481 4.7482508v20.4249459h-7.204652zm90.381641 23.4074272v-17.2272339h-5.875511v-6.1801933h5.875511v-6.10112899l7.266268-4.20358563v10.30471462h7.07702v6.1801933h-7.07702v16.0939789c0 2.0776342 1.201509 3.0264059 3.600126 3.0264059h3.160013v6.2329029h-5.307765c-5.180132 0-8.718642-2.2094082-8.718642-8.1260538zm-14.730588-2.6003372c-1.192707 3.1713572-3.815781 5.2709538-8.164099 5.2709538-5.056901 0-8.595411-3.1537873-8.907891-8.3456768h24.206224v-2.2313704c0-10.1509785-6.443256-16.142296-15.403961-16.142296-8.40176 0-15.795661 6.557945-15.795661 16.3970587s6.320025 16.3970587 15.795661 16.3970587c7.358693 0 12.411192-3.5754636 14.611758-10.0411669-1.896888-.3865366-4.062245-.8389601-6.342031-1.313346zm-8.291732-15.5712759c4.55077 0 8.150896 2.5871598 8.59541 7.2519539h-17.252436c.884627-4.6032996 4.361521-7.2519539 8.657026-7.2519539zm-14.677775-5.2358141h-8.846274l-12.943729 14.5697947v-27.1805516h-7.204652v44.1442379h7.204652v-14.5654023l12.930525 14.5654023h8.859478l-14.044011-15.7645443zm-208.9657336 25.7925338c-5.246149 0-9.1631563-3.5930335-9.1631563-10.0235971s3.9170073-10.0279895 9.1631563-10.0279895c4.5287645 0 7.4379126 2.2489402 8.4589751 5.749732 1.6460233-.3294346 4.9996855-1.0014812 6.4124485-1.3177384-1.571204-6.7643907-7.0858216-10.7966703-14.9374406-10.7966703-9.0971393 0-16.1741591 6.6194394-16.1741591 16.3970587 0 9.7776192 7.0770198 16.3970587 16.1741591 16.3970587 7.684376 0 13.0801636-3.8785435 14.9022316-10.8098477-1.43917-.3206497-4.7664253-.9883039-6.394844-1.3177385-1.170701 3.6106034-3.9038038 5.7497321-8.4413706 5.7497321z" transform="translate(30 48)"/></svg>

<?xml version="1.0" encoding="UTF-8"?>
<svg width="400px" height="140px" viewBox="0 0 400 140" version="1.1" xmlns="http://www.w3.org/2000/svg" xmlns:xlink="http://www.w3.org/1999/xlink">
    <title>Artboard</title>
    <g id="Artboard" stroke="none" stroke-width="1" fill="none" fill-rule="evenodd">
        <g id="BackMarket" transform="translate(30.000000, 48.000000)" fill="#000000" fill-rule="nonzero">
            <path d="M0,0 L17.3228544,0 C25.9666771,0 31.3492612,4.8580624 31.3492612,11.1612446 C31.4429607,15.0295 29.3665773,18.6267837 25.9666771,20.4864403 C30.6880351,21.9304617 33.9056656,26.2888983 33.8887809,31.2172237 C33.8887809,38.9743107 27.8855706,44.1442379 18.0886514,44.1442379 L0,44.1442379 L0,0 Z M17.5121031,18.0969413 C21.618359,18.0969413 23.9597611,16.3399567 23.9597611,12.487768 C23.9597611,8.63557927 21.618359,6.93569668 17.5121031,6.93569668 L7.38950016,6.93569668 L7.38950016,18.0969413 L17.5121031,18.0969413 Z M19.3649796,37.2085412 C23.4096196,37.2085412 26.1911349,35.1880089 26.1911349,31.1513368 C26.1911349,27.1146647 23.387614,25.0370304 19.3649796,25.0370304 L7.40270355,25.0370304 L7.40270355,37.2085412 L19.3649796,37.2085412 Z M36.9695064,28.3796936 C36.9695064,17.7850765 43.9188934,11.9826349 52.0081735,11.9826349 C55.9691921,11.9826349 59.3360578,13.8626084 61.7390758,16.0720166 L64.2169129,12.6107569 L68.9393273,12.6107569 L68.9393273,44.1442379 L61.712669,44.1442379 L61.712669,40.2437321 C59.6881484,42.3872533 56.5281358,44.7767523 51.7925181,44.7767523 C44.3986168,44.7767523 36.9430997,38.9743107 36.9430997,28.3796936 L36.9695064,28.3796936 Z M61.7390758,30.7120907 L61.7390758,26.108791 C61.7390758,21.5669859 57.8836844,18.1628282 53.2052814,18.1628282 C48.280415,18.1628282 44.2357749,21.4396045 44.2357749,28.3796936 C44.2357749,35.3197828 48.2540082,38.596559 53.2536938,38.596559 C57.8572776,38.596559 61.712669,35.2538958 61.712669,30.7120907 L61.7390758,30.7120907 Z M136.329456,12.6107569 L127.483181,12.6107569 L114.552656,27.2332612 L114.552656,0 L107.348004,0 L107.348004,44.1442379 L114.552656,44.1442379 L114.552656,29.534911 L127.483181,44.1442379 L136.329456,44.1442379 L122.298648,28.3796936 L136.329456,12.6107569 Z M154.42691,12.6107569 L145.580635,12.6107569 L131.593838,28.3796936 L145.589437,44.1442379 L154.435712,44.1442379 L140.396102,28.3796936 L154.42691,12.6107569 Z M195.850362,0 L182.712983,28.1512856 L182.712983,28.1512856 L182.712983,28.1512856 L169.544797,0 L161.62276,0 L161.62276,44.1442379 L168.809808,44.1442379 L168.809808,14.306247 L179.372524,37.0811598 L186.071047,37.0811598 L196.633763,14.306247 L196.633763,44.1442379 L203.772399,44.1442379 L203.772399,0 L195.850362,0 Z M208.195536,28.3796936 C208.195536,17.7850765 215.144923,11.9826349 223.234203,11.9826349 C227.195222,11.9826349 230.562087,13.8626084 232.965105,16.0720166 L235.460547,12.6107569 L240.187362,12.6107569 L240.187362,44.1442379 L232.973908,44.1442379 L232.973908,40.2437321 C230.953788,42.3872533 227.793776,44.7767523 223.053757,44.7767523 C215.655454,44.7767523 208.204338,38.9743107 208.204338,28.3796936 L208.195536,28.3796936 Z M232.965105,30.7120907 L232.965105,26.108791 C232.965105,21.5669859 229.109714,18.1628282 224.435712,18.1628282 C219.506445,18.1628282 215.461804,21.4396045 215.461804,28.3796936 C215.461804,35.3197828 219.506445,38.596559 224.497328,38.596559 C229.118516,38.596559 232.973908,35.2538958 232.973908,30.7120907 L232.965105,30.7120907 Z M245.275071,12.6107569 L249.984282,12.6107569 L252.46652,16.0720166 C254.614272,13.6122381 256.718013,12.1188012 259.922037,12.1188012 L265.256209,12.1188012 L265.256209,18.9534713 L257.184533,18.9534713 C254.204967,18.9534713 252.479723,20.350274 252.479723,23.7017221 L252.479723,44.126668 L245.275071,44.126668 L245.275071,12.6107569 Z M335.656712,36.0181841 L335.656712,18.7909502 L329.781201,18.7909502 L329.781201,12.6107569 L335.656712,12.6107569 L335.656712,6.50962791 L342.92298,2.30604228 L342.92298,12.6107569 L350,12.6107569 L350,18.7909502 L342.92298,18.7909502 L342.92298,34.8849291 C342.92298,36.9625633 344.124489,37.911335 346.523106,37.911335 L349.683119,37.911335 L349.683119,44.1442379 L344.375354,44.1442379 C339.195222,44.1442379 335.656712,41.9348297 335.656712,36.0181841 Z M320.926124,33.4178469 C319.733417,36.5892041 317.110343,38.6888007 312.762025,38.6888007 C307.705124,38.6888007 304.166614,35.5350134 303.854134,30.3431239 L328.060358,30.3431239 L328.060358,28.1117535 C328.060358,17.960775 321.617102,11.9694575 312.656397,11.9694575 C304.254637,11.9694575 296.860736,18.5274025 296.860736,28.3665162 C296.860736,38.2056299 303.180761,44.7635749 312.656397,44.7635749 C320.01509,44.7635749 325.067589,41.1881113 327.268155,34.722408 C325.371267,34.3358714 323.20591,33.8834479 320.926124,33.409062 L320.926124,33.4178469 Z M312.634392,17.846571 C317.185162,17.846571 320.785288,20.4337308 321.229802,25.0985249 L303.977366,25.0985249 C304.861993,20.4952253 308.338887,17.846571 312.634392,17.846571 Z M297.956617,12.6107569 L289.110343,12.6107569 L276.166614,27.1805516 L276.166614,0 L268.961962,0 L268.961962,44.1442379 L276.166614,44.1442379 L276.166614,29.5788356 L289.097139,44.1442379 L297.956617,44.1442379 L283.912606,28.3796936 L297.956617,12.6107569 Z M88.9908834,38.4032907 C83.7447344,38.4032907 79.8277271,34.8102572 79.8277271,28.3796936 C79.8277271,21.94913 83.7447344,18.3517041 88.9908834,18.3517041 C93.5196479,18.3517041 96.428796,20.6006443 97.4498585,24.1014361 C99.0958818,23.7720015 102.449544,23.0999549 103.862307,22.7836977 C102.291103,16.019307 96.7764854,11.9870274 88.9248664,11.9870274 C79.8277271,11.9870274 72.7507073,18.6064668 72.7507073,28.3840861 C72.7507073,38.1617053 79.8277271,44.7811448 88.9248664,44.7811448 C96.6092424,44.7811448 102.00503,40.9026013 103.827098,33.9712971 C102.387928,33.6506474 99.0606727,32.9829932 97.432254,32.6535586 C96.261553,36.264162 93.5284502,38.4032907 88.9908834,38.4032907 Z" id="Shape"></path>
        </g>
    </g>
</svg>
